usr/share/icons/biglinux-icons-material/16/places/folder.svg

<svg width="16" height="16" version="1.1" viewBox="0 0 16 16" xmlns="http://www.w3.org/2000/svg">
 <defs>
  <style id="current-color-scheme" type="text/css">.ColorScheme-Text { color:#363636; }</style>
 </defs>
 <path d="m2 1c-1.108 0-2 0.892-2 2v10c0 1.108 0.892 2 2 2h12c1.108 0 2-0.892 2-2v-8c0-1.108-0.892-2-2-2h-6l-2-2zm0 1h3.5859l1.4961 1.5039-1.4961 1.4961h-4.5859v-2c0-0.554 0.446-1 1-1zm6 2h6c0.554 0 1 0.446 1 1v8c0 0.554-0.446 1-1 1h-12c-0.554 0-1-0.446-1-1v-7h5z" style="fill:currentColor" class="ColorScheme-Text"/>
</svg>

<svg xmlns="http://www.w3.org/2000/svg" width="16" height="16"><path d="M2 1C.892 1 0 1.892 0 3v10c0 1.108.892 2 2 2h12c1.108 0 2-.892 2-2V5c0-1.108-.892-2-2-2H8L6 1zm0 1h3.586l1.496 1.504L5.586 5H1V3c0-.554.446-1 1-1zm6 2h6c.554 0 1 .446 1 1v8c0 .554-.446 1-1 1H2c-.554 0-1-.446-1-1V6h5z" style="fill:currentColor;color:#dedede"/></svg>
